X: 1
T: Mrs Jean Stalker
C: Jack Stalker
R: reel
Z: 2016 John Chambers <jc:trillian.mit.edu>
N: Suggested reel for The Nor Loch medley dance, along with Miss Dorothy Leurs (strathspey)
M: 4/4
L: 1/8
K: A
%%indent 120
"E7"E2 |\
"A"A2AB "F#m"cBAa | "E7"edcB "A"A2E2 |\
"Bm"F2B2 "B7"BcBA | "E"GEGB e2g2 |
"A"aece A2e2 | "Bm"fedf F2Bc |\
"E7"dcBA GfeB | "A"c2"D"A2 "A"A2"/G#"c2 ||\
"F#7"f2fe "Bm"dfB2 | "E7"e2ed "A"ceA2 |
"Bm"d2dc "B7"B2BA | "E"GEGB e2g2 |\
"A"aece A2e2 | "Bm"fedf F2Bc |\
"E7"dcBA GfeB | "A"c2"D"A2 "A"A2 |]
